src/assets/breeze-close-symbolic.svg

<?xml version="1.0" encoding="UTF-8"?>
<svg id="svg12" version="1.1" viewBox="0 0 18 18" xmlns="http://www.w3.org/2000/svg">
    <path id="path905" class="color" d="M5.3535 4.6465L9 8.293L12.6465 4.6465L13.3535 5.35355L9.70705 9.00005L13.3535 12.6466L12.6465 13.3536L9 9.7071L5.3535 13.3536L4.64645 12.6466L8.29295 9.00005L4.64645 5.35355L5.3535 4.6465Z" fill="#fff" stroke-width="1.125"/>
</svg>

<?xml version="1.0" encoding="UTF-8"?>
<svg id="svg12" version="1.1" viewBox="0 0 18 18" xmlns="http://www.w3.org/2000/svg">
    <path id="path905" class="color" d="m9 0a9 9 0 0 0-9 9 9 9 0 0 0 9 9 9 9 0 0 0 9-9 9 9 0 0 0-9-9zm-3.6465 4.6465 3.6465 3.6465 3.6465-3.6465 0.70705 0.70705-3.6465 3.6465 3.6465 3.6465-0.70705 0.70705-3.6465-3.6465-3.6465 3.6465-0.70705-0.70705 3.6465-3.6465-3.6465-3.6465z" fill="#fff" stroke-width="1.125"/>
</svg>
